X: 1
T:The Old Rustic Bridge
M:C
L:1/8
Q:80
C:
S:March 4/4
K:HP
A3/2d/2|
{g}f2{e}f3/2g/2{fg}f2{Gdc}d3/2c|
{gBd}B2{g}G{de}d{g}A2-A3/2{GAG}A/2|  !
{g}B2{g}cd{gdc}d2{g}c3/2d/2|
{gef}e2{A}e3/2f/2{gef}e2A3/2d/2| |
{g}f2{e}f3/2g/2{fg}f2{Gdc}d3/2c/2|  !
{gBd}B2{g}G{de}d{g}A2-A3/2{GAG}A/2|
{gBd}B2eg{fg}fe{gcd}c{g}A|
{Gdc}d2{gdc}d3/2e/2d3|]  !
e3/2d/2|
{g}c2{GdG}c3/2d/2e2{gfg}f3/2e/2|
{gef}e2{g}B3/2c/2{Gdc}d2-d3/2{c}d/2|  !
{gcd}c2{GdG}ce{g}d{gcd}cB|
{g}A2{g}B2{GdG}c2{gBd}B{e}A| |
f2{e}f3/2g/2{fg}f2{Gdc}d3/2c/2|  !
{gBd}B2{g}G{de}d{g}A2-A3/2{GAG}A/2|
{gBd}B2{g}eg{fg}fe{gcd}c{e}A|
{Gdc}d2{gdc}d3/2e/2d3|]  !
e3/2f/2|
g2{f}g3/2f/2{gef}e2B3/2c/2|
{Gdc}d2f2A{gfg}f3{gef}e2a|  !
cedcB|
{G}A2{g}B2{gcd}c2B{G}A| |
f2{e}f3/2g/2{fg}f2{Gdc}d3/2c/2|  !
{gBd}B2{g}G{de}d{g}A2-A3/2{GAG}A/2|
{gBd}B2{g}eg{fg}f{g}e{gcd}c{e}A|
{Gdc}d2{gdc}d3/2e/2d3|]  !
